svg/300/sharp/1x_mobiledata_badge.svg

<svg xmlns="http://www.w3.org/2000/svg" width="48" height="48" viewBox="0 -960 960 960"><path d="M291.616-290.001H337v-379.998H210.001v45.383h81.615v334.615Zm177.615 0H520l90-158.231 91.616 158.231h50.537L638.307-489.077l103.384-180.922h-50.383l-80.923 142.23-81.539-142.23h-51.153l104.385 181.691-112.847 198.307Zm-409.23 150v-679.998H900v679.998H60.001Zm45.384-45.384h749.23v-589.23h-749.23v589.23Zm0 0v-589.23 589.23Z"/></svg>

<svg xmlns="http://www.w3.org/2000/svg" width="48" height="48" viewBox="0 -960 960 960"><path d="M291.62-290H337v-380H210v45.38h81.62V-290Zm177.61 0H520l90-158.23L701.62-290h50.53L638.31-489.08 741.69-670h-50.38l-80.93 142.23L528.85-670h-51.16l104.39 181.69L469.23-290ZM60-140v-680h840v680H60Zm45.39-45.39h749.22v-589.22H105.39v589.22Zm0 0v-589.22 589.22Z"/></svg>
